src/assets/img/icons/icon_achievementBadge.svg

<svg enable-background="new 0 0 50 50" viewBox="0 0 50 50" xmlns="http://www.w3.org/2000/svg"><path d="m25.1 956.8c-6.5-.1-12.5 4.3-14.3 10.9s1.2 13.3 6.9 16.5v14.2c0 .3.2.5.5.5.1 0 .2 0 .3-.1l6.6-4.7 6.6 4.7c.2.2.5.1.7-.1.1-.1.1-.2.1-.3v-14.2c3.3-1.9 5.8-5 6.9-8.9 2.1-7.8-2.6-15.9-10.4-18-1.4-.3-2.7-.5-3.9-.5zm0 1c1.1 0 2.3.2 3.4.5 7.3 2 11.7 9.5 9.7 16.8s-9.5 11.6-16.8 9.7c-7.3-2-11.6-9.4-9.7-16.8 1.7-6.2 7.3-10.3 13.4-10.2zm-.1 2.9c-5.9 0-10.8 4.8-10.8 10.8 0 5.9 4.8 10.8 10.8 10.8s10.8-4.8 10.8-10.8-4.9-10.8-10.8-10.8zm0 1c5.4 0 9.8 4.4 9.8 9.8s-4.4 9.8-9.8 9.8-9.8-4.4-9.8-9.8 4.4-9.8 9.8-9.8zm6.4 23v12.8l-3.5-2.5v-9.1c1.2-.3 2.4-.7 3.5-1.2zm-12.8 0c.8.4 1.7.7 2.6.9.3.1.6.1.9.2v9.1l-3.5 2.5zm4.4 1.3c1.3.2 2.6.2 3.9 0v8.3l-1.7-1.2c-.2-.1-.4-.1-.6 0l-1.7 1.2v-8.3z" transform="translate(0 -952.36218)"/></svg>

<?xml version="1.0" encoding="utf-8"?>
<!-- Generator: Adobe Illustrator 21.1.0, SVG Export Plug-In . SVG Version: 6.00 Build 0)  -->
<svg version="1.1" id="Ebene_1" xmlns="http://www.w3.org/2000/svg" xmlns:xlink="http://www.w3.org/1999/xlink" x="0px" y="0px"
	 viewBox="0 0 50 50" style="enable-background:new 0 0 50 50;" xml:space="preserve">
<g transform="translate(0,-952.36218)">
	<path d="M25.1,956.8c-6.5-0.1-12.5,4.3-14.3,10.9c-1.8,6.6,1.2,13.3,6.9,16.5h0v14.2c0,0.3,0.2,0.5,0.5,0.5c0.1,0,0.2,0,0.3-0.1
		l6.6-4.7l6.6,4.7c0.2,0.2,0.5,0.1,0.7-0.1c0.1-0.1,0.1-0.2,0.1-0.3v-14.2h0c3.3-1.9,5.8-5,6.9-8.9c2.1-7.8-2.6-15.9-10.4-18
		C27.6,957,26.3,956.8,25.1,956.8z M25.1,957.8c1.1,0,2.3,0.2,3.4,0.5c7.3,2,11.7,9.5,9.7,16.8c-2,7.3-9.5,11.6-16.8,9.7
		c-7.3-2-11.6-9.4-9.7-16.8C13.4,961.8,19,957.7,25.1,957.8z M25,960.7c-5.9,0-10.8,4.8-10.8,10.8c0,5.9,4.8,10.8,10.8,10.8
		s10.8-4.8,10.8-10.8S30.9,960.7,25,960.7z M25,961.7c5.4,0,9.8,4.4,9.8,9.8c0,5.4-4.4,9.8-9.8,9.8s-9.8-4.4-9.8-9.8
		C15.2,966.1,19.6,961.7,25,961.7z M31.4,984.7v12.8l-3.5-2.5h0v-9.1C29.1,985.6,30.3,985.2,31.4,984.7z M18.6,984.7
		c0.8,0.4,1.7,0.7,2.6,0.9c0.3,0.1,0.6,0.1,0.9,0.2v9.1h0l-3.5,2.5V984.7z M23,986c1.3,0.2,2.6,0.2,3.9,0v8.3l-1.7-1.2
		c-0.2-0.1-0.4-0.1-0.6,0l-1.7,1.2V986z"/>
</g>
</svg>
